X:187G
T:Saxon Dance in G
O:No 187 William Clarke of Feltwell
M:2/4
N:But should there be G sharps in bars B2 and B6?
L:1/16
K:G
DG|B2GB d2cB|A2AA A2B2|d2c2A2A2|c2B2G2 DG|B2GB d2cB|A2AG A2B2|d2c2A2B2|G6::
K:D
A2|d2c2d2 fe|dcBA GABc|dced fegf|e2e^d e2A2|d2c2d2 fe|dcBA GABc|dBfd Bgec|d2f2d2::
K:G
d2|c2B2A2G2|A2AG A2c2|B2A2G2A2|B4G2d2|c2B2A2G2|A2A2A2c2|B2A2G2F2|G6:|

